src/assets/duotone/Glass.svg

<svg width="24" height="24" viewBox="0 0 24 24"  xmlns="http://www.w3.org/2000/svg">
<path d="M13.1901 16.29H10.8101V17.71H13.1901V16.29Z" />
<path d="M7.94977 2.71C7.94977 3.11 7.62977 3.43 7.23977 3.43H6.28977C4.57977 3.43 3.18977 4.82 3.18977 6.52V12.4C2.33977 12.83 1.75977 13.71 1.75977 14.73V6.52C1.75977 4.03 3.78977 2 6.28977 2H7.23977C7.62977 2 7.94977 2.32 7.94977 2.71Z" />
<path d="M22.2398 6.52V14.73C22.2398 13.71 21.6598 12.83 20.8098 12.4V6.52C20.8098 4.82 19.4198 3.43 17.7098 3.43H16.7598C16.3698 3.43 16.0498 3.11 16.0498 2.71C16.0498 2.32 16.3698 2 16.7598 2H17.7098C20.2098 2 22.2398 4.03 22.2398 6.52Z" />
<path opacity="0.4" d="M10.8098 14.7304V19.3804C10.8098 20.8304 9.62977 22.0004 8.18976 22.0004H4.37977C2.93977 22.0004 1.75977 20.8304 1.75977 19.3804V14.7304C1.75977 13.7104 2.33977 12.8304 3.18977 12.4004C3.54977 12.2104 3.94977 12.1104 4.37977 12.1104H8.18976C9.62977 12.1104 10.8098 13.2804 10.8098 14.7304Z" />
<path opacity="0.4" d="M22.2399 14.7304V19.3804C22.2399 20.8304 21.0599 22.0004 19.6199 22.0004H15.8099C14.3699 22.0004 13.1899 20.8304 13.1899 19.3804V14.7304C13.1899 13.2804 14.3699 12.1104 15.8099 12.1104H19.6199C20.0499 12.1104 20.4499 12.2104 20.8099 12.4004C21.6599 12.8304 22.2399 13.7104 22.2399 14.7304Z" />
</svg>

<?xml version="1.0" encoding="UTF-8"?>
<svg width="24" height="24" viewBox="0 0 24 24" xmlns="http://www.w3.org/2000/svg">
 <path d="m13.19 16.29h-2.38v1.42h2.38v-1.42z"/>
 <path d="m7.9498 2.71c0 0.4-0.32 0.72-0.71 0.72h-0.95c-1.71 0-3.1 1.39-3.1 3.09v5.88c-0.85 0.43-1.43 1.31-1.43 2.33v-8.21c0-2.49 2.03-4.52 4.53-4.52h0.95c0.39 0 0.71 0.32 0.71 0.71z"/>
 <path d="m22.24 6.52v8.21c0-1.02-0.58-1.9-1.43-2.33v-5.88c0-1.7-1.39-3.09-3.1-3.09h-0.95c-0.39 0-0.71-0.32-0.71-0.72 0-0.39 0.32-0.71 0.71-0.71h0.95c2.5 0 4.53 2.03 4.53 4.52z"/>
 <path d="m10.81 14.73v4.65c0 1.45-1.18 2.62-2.62 2.62h-3.81c-1.44 0-2.62-1.17-2.62-2.62v-4.65c0-1.02 0.58-1.9 1.43-2.33 0.36-0.19 0.76-0.29 1.19-0.29h3.81c1.44 0 2.62 1.17 2.62 2.62z" opacity=".4"/>
 <path d="m22.24 14.73v4.65c0 1.45-1.18 2.62-2.62 2.62h-3.81c-1.44 0-2.62-1.17-2.62-2.62v-4.65c0-1.45 1.18-2.62 2.62-2.62h3.81c0.43 0 0.83 0.1 1.19 0.29 0.85 0.43 1.43 1.31 1.43 2.33z" opacity=".4"/>
</svg>
